X: 1
T: String Quartet in F Minor opus 55 no 2 mvt 2
C: Franz Joseph Haydn
%%abc-version 2.0
%%abcx-abcm2ps-target-version 5.9.1 (29 Sep 2008)
%%abc-creator hum2abc beta
%%abcx-conversion-date 2021/02/14 14:38:19
%%abc-copyright Copyright (c) 1994, 2000 Center for Computer Assisted Research in the Humanities
%%abc-edited-by Frances Bennion
%%abcx-initial-encoding-date 1997/04/15
%%gracespace 0 6 6
%%humdrum-veritas 2480622097
%%humdrum-veritas-data 1891513772
%%linebreak <none>
%%barnumbers 0
L: 1/4
M: 2/2
N: Derived from op55n2-02.krn
Q: "Allegro"
%%staves [1 2 3 4]
V: 1
V: 2
V: 3 clef=alto
V: 4 clef=bass
K: Ab
[V:1]f4 [I:setbarnb2] |
[V:2]z c c c |
[V:3]z A A A |
[V:4]z F F F |
[V:1]c'3 c' |
[V:2]z c c A |
[V:3]z A A A |
[V:4]z F F F |
[V:1]d' =b z b |
[V:2]z =B B F |
[V:3]z A A A |
[V:4]z F F F |
[V:1]c' g z g |
[V:2]G2 z2 |
[V:3]G2 z2 |
[V:4]=E2 z2 |
[V:1]b2- b/>a/ g3//f// |
[V:2]z G B2 |
[V:3]z F =E2 |
[V:4]z D C2 |
[V:1]=e/>d/ c/>B/ A/>G/ F3//=E// |
[V:2]z2 z/>G/ F3//=E// |
[V:3]z2 z/>G/ F3//=E// |
[V:4]z2 z/>G,/ F,3//=E,// |
[V:1]F D C =B, |
[V:2]F D C =B, |
[V:3]F D C =B, |
[V:4]F, D, C, =B,, |
[V:1]C c z2 |
[V:2]C c z2 |
[V:3]C C, z2 |
[V:4]C, C,, z2 |
[V:1]f4 |
[V:2]z c c c |
[V:3]z A A A |
[V:4]z F F F |
[V:1]c'3 c' |
[V:2]z c c A |
[V:3]z A A A |
[V:4]z F F F |
[V:1]d' =b z b |
[V:2]z =B B F |
[V:3]z A A A |
[V:4]z F F F |
[V:1]c' g' z/>B,/ B, |
[V:2]G2 z2 |
[V:3]G2 z2 |
[V:4]=E2 z2 |
[V:1]D B, z/>B,/ B, |
[V:2]z/>B,/ B, D B, |
[V:3]z/>B,/ B, D B, |
[V:4]z/>B,,/ B,, D, B,, |
[V:1]D/>B,/ G/>=E/ B/>G/ d3//d// |
[V:2]z3 B3//B// |
[V:3]z4 |
[V:4]z4 |
[V:1]d2 c =E |
[V:2]B2 A B, |
[V:3]z F, F, G, |
[V:4]z B,, C, C, |
[V:1]F z3 |
[V:2]A, z3 |
[V:3]F, z3 |
[V:4]F,, z3 |
[V:1]z4 |
[V:2]z4 |
[V:3]z4 |
[V:4]z4 |
[V:1]z4 |
[V:2]z4 |
[V:3]z4 |
[V:4]z4 |
[V:1]_G4 |
[V:2]z D D D |
[V:3]z B, B, B, |
[V:4]z _G, G, G, |
[V:1]d3 d |
[V:2]z D D B, |
[V:3]z B, B, B, |
[V:4]z _G, G, G, |
[V:1]e c z c |
[V:2]z C C C |
[V:3]z A, A, A, |
[V:4]z _G, G, G, |
[V:1]d a z c |
[V:2]z C D A |
[V:3]z A, A, z |
[V:4]z _G, F, z |
[V:1]d a z d |
[V:2]z C D A |
[V:3]z A, A, z |
[V:4]z _G, F, z |
[V:1]e b z =d |
[V:2]z =D E B |
[V:3]z B, B, z |
[V:4]z A, _G, z |
[V:1]e b >>a _g3//f// |
[V:2]z =D E B3//A// |
[V:3]z B, B, B, |
[V:4]z A, _G, E,3//F,// |
[V:1]e e2 d |
[V:2]_G B2 B |
[V:3]B, B, B, B, |
[V:4]_G, G, =G, G, |
[V:1]c/>e'/ d'/>c'/ b/>a/ g3//f// |
[V:2]E4 |
[V:3]C4 |
[V:4]A,4 |
[V:1]e/>=d/ e/>f/ e/>_d/ c3//B// |
[V:2][E4D4] |
[V:3]B,4 |
[V:4]G,4 |
[V:1]c/>e/ d/>c/ B/>A/ G3//F// |
[V:2][E4C4] |
[V:3]C4 |
[V:4]A,4 |
[V:1]E/>=D/ E/>F/ E/>_D/ C3//B,// |
[V:2][E4D4] |
[V:3]B,4 |
[V:4]G,4 |
[V:1]A,/C/ E/C/ A/E/ c/A/ |
[V:2][C2E2] E2 |
[V:3]C2 A,2- |
[V:4]A,2 C,2 |
[V:1]F/=A/ B/c/ d/=d/ e/=e/ |
[V:2]F4- |
[V:3]A,4- |
[V:4]D,4- |
[V:1]f/e/ d/c/ B/A/ G/A/ |
[V:2]F4 |
[V:3]A, =A, B, B,- |
[V:4]D,3 =D, |
[V:1]G/B/ d/B/ g/a/ b/c'/ |
[V:2]G4- |
[V:3]B,4 |
[V:4]E,4- |
[V:1]d'/c'/ b/a/ g/f/ e/d/ |
[V:2]G4 |
[V:3]B4 |
[V:4]E,4- |
[V:1]c/e/ d/c/ B/A/ G/A/ |
[V:2]A4- |
[V:3]C4 |
[V:4]E,4- |
[V:1]=D/c/ B/A/ G/F/ E/D/ |
[V:2]A4 |
[V:3]=D4 |
[V:4]E,4- |
[V:1]E/G/ B/G/ e/B/ g/e/ |
[V:2]G4 |
[V:3]E B, G, E, |
[V:4]E,4- |
[V:1]=d/e/ f/g/ a/f/ d/f/ |
[V:2]A4 |
[V:3]=D3 F/D/ |
[V:4]E,4 |
[V:1]e/=d/ e/f/ e/_d/ c/B/ |
[V:2]G/=D/ E/F/ E/_D/ C/B,/ |
[V:3]E/=D/ E/F/ E/_D/ C/B,/ |
[V:4]E,/=D,/ E,/F,/ E,/_D,/ C,/B,,/ |
[V:1]A4 |
[V:2]A, E E E |
[V:3]A, C C C |
[V:4]A,, A, A, A, |
[V:1]e3 e |
[V:2]z c c c |
[V:3]z C C C |
[V:4]z A, A, A, |
[V:1]f =d z d |
[V:2]z B B B |
[V:3]z F F F |
[V:4]z A, A, A, |
[V:1]e B z c |
[V:2]z B B c |
[V:3]z E E E |
[V:4]z G, G, A, |
[V:1]e2 d c |
[V:2]A3 G |
[V:3]F3 E |
[V:4]F,3 E, |
[V:1]B f d B |
[V:2]F3 D |
[V:3]D4 |
[V:4]D,4 |
[V:1]A2 B/>A/ B3//c// |
[V:2]C2 D/>C/ D3//E// |
[V:3]E E G, G, |
[V:4]E, E, E, E, |
[V:1]A c e z |
[V:2]C z2 c |
[V:3]A, A c z |
[V:4]A,3 A, |
[V:1]z g b z |
[V:2]d z2 B |
[V:3]z B d z |
[V:4]B, E, z G, |
[V:1]z c e z |
[V:2]c z2 c |
[V:3]z A c z |
[V:4]A, A,, z A, |
[V:1]z g b z |
[V:2]d z2 B |
[V:3]z B d z |
[V:4]B, E, z G, |
[V:1]z _c c c |
[V:2]c A A A |
[V:3]z F F F |
[V:4]A, =D D D |
[V:1]B3 f/e/ |
[V:2]G3 G |
[V:3]E3 E/B/ |
[V:4]D3 D |
[V:1]e f/e/ e f/e/ |
[V:2]A G A G |
[V:3]A E/B/ A E/B/ |
[V:4]C D C D |
[V:1]e f/e/ f/e/ f/e/ |
[V:2]A G A G |
[V:3]A E/B/ A E/B/ |
[V:4]C D C D |
[V:1]c' >>g a7// =e// |
[V:2]A2 A,2- |
[V:3]A4- |
[V:4]C2 C,2 |
[V:1]=e >>g e/>g/ e3//g// |
[V:2]A,4- |
[V:3]A4- |
[V:4]D,4- |
[V:1]=e/f/ c/d/ =A/B/ d/B/ |
[V:2]A, =A, B, F/D/ |
[V:3]A _G F D/F/ |
[V:4]D,4 |
[V:1]A3 c/B/ |
[V:2]C3 E/D/ |
[V:3]E3 G, |
[V:4]E, E, E, E, |
[V:1]A/>E/ F/>G/ A/>B/ c3//d// |
[V:2]C z3 |
[V:3]A, z3 |
[V:4]A, z3 |
[V:1]e/>f/ e/>=d/ e e |
[V:2]z2 z/>F/ G3//A// |
[V:3]z/>=D,/ E,/>F,/ G,/>A,/ B,3//C// |
[V:4]z4 |
[V:1]e4- |
[V:2]B/>c/ d/>c/ B/>A/ G3//F// |
[V:3]D/>E/ F/>E/ D/>C/ B,3//A,// |
[V:4]z4 |
[V:1]e/>f/ e/>=d/ e e |
[V:2]E z >>F G3//A// |
[V:3]G, z3 |
[V:4]z/>=D,,/ E,,/>F,,/ G,,/>A,,/ B,,3//C,// |
[V:1]e4- |
[V:2]B/>=A/ B/>c/ d G |
[V:3]z4 |
[V:4]D,/>C,/ D,/>E,/ F,/>G,/ A,3//B,// |
[V:1]e/>g/ a/>b/ c'/>d'/ e'3//f'// |
[V:2]A4- |
[V:3]E4- |
[V:4]C4- |
[V:1]_g'2 f' =e' |
[V:2]A A A A |
[V:3]E E F _G |
[V:4]C C C C |
[V:1]f/>g/ a/>g/ a b |
[V:2]A2 z2 |
[V:3]F2 z2 |
[V:4]D2 z2 |
[V:1]_c'4 |
[V:2]z f f f |
[V:3]z A A A |
[V:4]z =D D D |
[V:1]c'4 |
[V:2]z c c c |
[V:3]z A A A |
[V:4]z E E E |
[V:1]G,4 |
[V:2]z B, B, B, |
[V:3]z D, D, D, |
[V:4]z E,, E,, E,, |
[V:1]A,/E/ C/A/ E/c/ A/e/ |
[V:2]A,2 z2 |
[V:3]C,2 z2 |
[V:4]A,,2 z2 |
[V:1]e3 G, |
[V:2]G,/D/ B,/B/ D/F/ E/D/ |
[V:3]D,/G,/ D,/D/ B,/D/ C/B,/ |
[V:4]E,,2 z2 |
[V:1]A,/E/ C/A/ E/c/ A/e/ |
[V:2]C z3 |
[V:3]A, z3 |
[V:4]A,,2 z2 |
[V:1]e3 G |
[V:2]G,/D/ B,/B/ D/F/ E/D/ |
[V:3]D,/G,/ D,/D/ B,/D/ C/B,/ |
[V:4]E,,2 z2 |
[V:1]A,/E/ C/A/ E/c/ A/e/ |
[V:2]C z3 |
[V:3]A, z3 |
[V:4]A,,2 z2 |
[V:1]=e4 |
[V:2]B,/G/ =E/B/ G/d/ c/B/ |
[V:3]G,/B,/ G,/G/ =E/B/ A/G/ |
[V:4]C,4 |
[V:1]_g3 c |
[V:2]C/E/ _G/E/ G/B/ A/G/ |
[V:3]A,/C/ E/C/ E/_G/ F/E/ |
[V:4]A,,4 |
[V:1]d4 |
[V:2]F A A A |
[V:3]D F F F |
[V:4]D, D D D |
[V:1]a3 a |
[V:2]z A A F |
[V:3]z F F F |
[V:4]z D D D |
[V:1]b g z g |
[V:2]z B G B |
[V:3]z E E E |
[V:4]z D D D |
[V:1]a e z e |
[V:2]z A A A |
[V:3]z E E E |
[V:4]z C C C |
[V:1]_g2- g/>f/ e3//d// |
[V:2]z C E F |
[V:3]z E C D |
[V:4]z A, C D |
[V:1]c/>d/ e/>d/ c/>B/ A3//_G// |
[V:2]_G4 |
[V:3]E C D E |
[V:4]E A,, B,, C, |
[V:1]F D B, G, |
[V:2]F D B, G, |
[V:3]F D B, G, |
[V:4]D, D, B,, G,, |
[V:1]A, A z2 |
[V:2]A, A z2 |
[V:3]A, A z2 |
[V:4]A,, A, z2 |
[V:1]z4 |
[V:2]z4 |
[V:3]z4 |
[V:4]z4 |
[V:1]z4 |
[V:2]z4 |
[V:3]z4 |
[V:4]z4 |
[V:1]=A4 |
[V:2]z =E E E |
[V:3]z ^C C C |
[V:4]z =A, A, A, |
[V:1]=e3 e |
[V:2]z =E E ^C |
[V:3]z ^C C C |
[V:4]z =A, A, A, |
[V:1]^f ^d z d |
[V:2]z ^F ^D F |
[V:3]z =B, B, B, |
[V:4]z =A, A, A, |
[V:1]=e =b z ^d |
[V:2]=E z3 |
[V:3]^G/=B/ G/B/ =A/c/ A/c/ |
[V:4]^G,2 z2 |
[V:1]=e =b z ^d |
[V:2]z4 |
[V:3]^G/=B/ G/B/ =A/c/ A/c/ |
[V:4]z4 |
[V:1]=e =b z ^c |
[V:2]z4 |
[V:3]^G/=B/ G/B/ =G/_B/ G/B/ |
[V:4]z4 |
[V:1]=d =a z =B |
[V:2]z4 |
[V:3]^F/=A/ F/A/ =F/_A/ F/A/ |
[V:4]z4 |
[V:1]c g z =A |
[V:2]z4 |
[V:3]=E/G/ E/G/ _E/F/ E/F/ |
[V:4]z4 |
[V:1]B f z =A |
[V:2]z4 |
[V:3]=D/F/ D/F/ E/F/ E/F/ |
[V:4]z4 |
[V:1]B f z =A |
[V:2]z b =a c' |
[V:3]=D/F/ D/F/ E/F/ E/F/ |
[V:4]z4 |
[V:1]B f z =A |
[V:2]z b =a c' |
[V:3]=D/F/ D/F/ E/F/ E/F/ |
[V:4]z4 |
[V:1]B/f/ e/=d/ c/B/ =A/B/ |
[V:2]=d' z3 |
[V:3]=D/B,/ C/D/ E/D/ C/D/ |
[V:4]B,,4 |
[V:1]=A/B/ c/B/ A/G/ F/E/ |
[V:2]z4 |
[V:3]C/=D/ E/D/ C/B,/ =A,/C/ |
[V:4]F,3 F, |
[V:1]=D/B/ _D/B/ C/B/ C/B/ |
[V:2]z4 |
[V:3]B, G =E G |
[V:4]G, =E, z E, |
[V:1]C/=A/ _C/_A/ B,/A/ B,/A/ |
[V:2]z4 |
[V:3]z F =D F |
[V:4]F, =D, z D, |
[V:1]G/b/ a/g/ f/e/ =d/e/ |
[V:2]e4 |
[V:3]G z3 |
[V:4]E, E,, z2 |
[V:1]=d/e/ f/e/ d/B/ c/d/ |
[V:2]b3 b |
[V:3]z4 |
[V:4]z4 |
[V:1]e/f/ e/f/ e/f/ e/f/ |
[V:2]c' =a z a |
[V:3]z4 |
[V:4]z4 |
[V:1]=d/f/ d/f/ _d/e/ d/e/ |
[V:2]b f z g |
[V:3]z4 |
[V:4]z4 |
[V:1]c/e/ c/e/ c/e/ c/e/ |
[V:2]a e z ^f |
[V:3]z4 |
[V:4]z4 |
[V:1]=B/=d/ B/d/ B/d/ c/B/ |
[V:2]g/^f/ g/a/ g/=f/ e/=d/ |
[V:3]z4 |
[V:4]z4 |
[V:1]c/=B/ c/=d/ e/g/ f/e/ |
[V:2]e/G/ =A/=B/ c/e/ =d/c/ |
[V:3]C4 |
[V:4]z4 |
[V:1]=d/c/ d/e/ f/a/ g/f/ |
[V:2]=B/=A/ B/c/ =d/f/ e/d/ |
[V:3]G3 G |
[V:4]z4 |
[V:1]e/c'/ e/c'/ e/c'/ e/c'/ |
[V:2]c/e/ c/e/ c/e/ c/e/ |
[V:3]A ^F z F |
[V:4]z4 |
[V:1]=d/=b/ _d/_b/ c/b/ c/b/ |
[V:2]=B/=d/ _B/_d/ B/d/ B/d/ |
[V:3]G =E z E |
[V:4]z4 |
[V:1]a/c'/ b/a/ g/f/ =e/f/ |
[V:2]c/A/ B/c/ d/c/ B/c/ |
[V:3]F/A/ G/F/ B/A/ G/A/ |
[V:4]F,4 |
[V:1]=e/f/ g/d/ c/B/ A/G/ |
[V:2]B/A/ G/A/ G/=E/ F/G/ |
[V:3]G/F/ =E/F/ E/C/ =D/E/ |
[V:4]C3 C |
[V:1]F/=E/ F/A/ G/F/ E/F/ |
[V:2]F z3 |
[V:3]F D,2 A |
[V:4]D =B, z B, |
[V:1]=E/G/ B/d/ c/B/ A/G/ |
[V:2]z4 |
[V:3]G =E G E |
[V:4]C C, z C, |
[V:1]F/=e/ f/e/ f/e/ f/g/ |
[V:2]A4 |
[V:3]F z3 |
[V:4]D,4 |
[V:1]a/b/ c'/b/ a/g/ f/e/ |
[V:2]e3 e |
[V:3]z4 |
[V:4]C,4 |
[V:1]=d/f/ a/c'/ b/a/ g/f/ |
[V:2]f =d z d |
[V:3]z4 |
[V:4]B,,3 A,, |
[V:1]e z3 |
[V:2]e/B/ A/B/ G/B/ F/B/ |
[V:3]E4 |
[V:4]G,,4 |
[V:1]z4 |
[V:2]E/=D/ E/D/ E/D/ E/F/ |
[V:3]B3 B |
[V:4]_G,,3 F,, |
[V:1]z4 |
[V:2]_G/F/ G/F/ E/G/ F/E/ |
[V:3]_c =A z A |
[V:4]E,,2 F,,2 |
[V:1]z4 |
[V:2]B4 |
[V:3]B/F/ E/F/ D/F/ C/F/ |
[V:4]D,2 B,, C, |
[V:1]z4 |
[V:2]f3 f |
[V:3]B,/=A,/ B,/A,/ B,/A,/ B,/C/ |
[V:4]D,3 C, |
[V:1]z4 |
[V:2]_g =e z e |
[V:3]D/C/ D/C/ B,/D/ C/B,/ |
[V:4]B,,2 C,2 |
[V:1]f4 |
[V:2]f c z2 |
[V:3]A,/G,/ A,/c/ B/A/ G/F/ |
[V:4]F,/=E,/ F,/A,/ G,/F,/ E,/=D,/ |
[V:1]c'3 c' |
[V:2]z4 |
[V:3]=E/=D/ E/F/ E/G/ F/G/ |
[V:4]C,/=B,,/ C,/D,/ C,/_B,,/ A,,/G,,/ |
[V:1]d' =b z b |
[V:2]z3 f- |
[V:3]A3 G |
[V:4]F,,/=E,,/ F,,/A,,/ G,,/F,,/ _E,,/=D,,/ |
[V:1]c' g z a |
[V:2]f/g/ f/g/ =e/g/ _e/f/ |
[V:3]G z2 C |
[V:4]C,, z3 |
[V:1]b f z g |
[V:2]e/f/ e/f/ =d/f/ _d/e/ |
[V:3]B, B z B, |
[V:4]z4 |
[V:1]a e z ^f |
[V:2]d/e/ d/e/ c/e/ c/=d/ |
[V:3]A, A z A, |
[V:4]z4 |
[V:1]g =d z =e |
[V:2]c/=d/ c/d/ =B/d/ _B/c/ |
[V:3]G, G z G, |
[V:4]z4 |
[V:1]f/=e/ f/a/ g/f/ e/f/ |
[V:2]A/G/ A/c/ B/A/ G/A/ |
[V:3]F, C D =B, |
[V:4]z F,, B,, =B,, |
[V:1]=e/g/ b/d'/ c'/b/ a/g/ |
[V:2]G =E z =e |
[V:3]C z2 B |
[V:4]C,4- |
[V:1]a/c'/ b/a/ g/f/ =e/f/ |
[V:2]f a z c |
[V:3]A c z A |
[V:4]C,4- |
[V:1]=e/f/ g/f/ e/d/ c/B/ |
[V:2]B d z G |
[V:3]G B z =E |
[V:4]C,4- |
[V:1]A/G/ A/c/ B/A/ G/F/ |
[V:2]A F z C |
[V:3]F A, z A, |
[V:4]C,4- |
[V:1]=E/F/ G/D/ C/B,/ A,/G,/ |
[V:2]B, D z [G,=E] |
[V:3]G, B, z B, |
[V:4][C,4C,,4-] |
[V:1]A,/C/ F/C/ A/F/ A/c/ |
[V:2][F4-A,4] |
[V:3]A,4 |
[V:4][C,4C,,4-] |
[V:1]f/c/ a/f/ c/A/ F/C/ |
[V:2][F4A,4] |
[V:3]F4 |
[V:4][C,4C,,4-] |
[V:1]=B,/=D/ F/D/ A/F/ A/=B/ |
[V:2][A4-=B,4] |
[V:3][=D4-F4] |
[V:4][C,4C,,4-] |
[V:1]=d/f/ a/f/ d/=B/ A/F/ |
[V:2][A3B,3] F |
[V:3][=D3F3] =B, |
[V:4][C,4C,,4-] |
[V:1]C/=E/ G/E/ c/G/ =e/c/ |
[V:2][=E4-G,4] |
[V:3]C4- |
[V:4][C,4C,,4-] |
[V:1]g/=e/ c'/g/ e/c/ G/=E/ |
[V:2][=EG,] [G,E] [EG,] [EG,] |
[V:3]C C, =E, G, |
[V:4][C,C,,] [C,C,,] [C,C,,] [C,C,,] |
[V:1]C2 z2 |
[V:2][G,2=E2] z2 |
[V:3]C2 z2 |
[V:4][C,C,,] z3 |
[V:1]f4 |
[V:2]z c c c |
[V:3]z =A A A |
[V:4]z F F F |
[V:1]c'3 c' |
[V:2]z c c c |
[V:3]z =A A A |
[V:4]z F F F |
[V:1]=d' =b z b |
[V:2]z =d =B d |
[V:3]z G G G |
[V:4]z F F F |
[V:1]c' g z =a |
[V:2]z c c c |
[V:3]z G G F |
[V:4]z =E E F |
[V:1]c'2 b =a |
[V:2]F3 =E |
[V:3]=D3 C |
[V:4]=D3 C |
[V:1]g =d' b g |
[V:2]=D2 =d B |
[V:3]B,4 |
[V:4]B,4 |
[V:1]f2 g/>f/ g3//=a// |
[V:2]=A2 B/>A/ B3//c// |
[V:3]C C =E, E, |
[V:4]C C C, C, |
[V:1]f =a c' z |
[V:2]=A z2 A |
[V:3]F, F =A z |
[V:4]F,3 F, |
[V:1]z g b z |
[V:2]B z2 G |
[V:3]z =E G z |
[V:4]G, C, z =E, |
[V:1]z =A c z |
[V:2]=A z2 A |
[V:3]z F =A z |
[V:4]F, F,, z F, |
[V:1]z G B z |
[V:2]B z2 G |
[V:3]z =E G z |
[V:4]G, C, z =E, |
[V:1]z A A A |
[V:2]=A F F F |
[V:3]z =D D D |
[V:4]F, =B, B, B, |
[V:1]G3 =d/c/ |
[V:2]=E3 E |
[V:3]C3 C/G/ |
[V:4]B,3 B, |
[V:1]c =d/c/ c d/c/ |
[V:2]F =E F E |
[V:3]F C/G/ F C/G/ |
[V:4]=A, B, A, B, |
[V:1]c =d/c/ d/c/ d/c/ |
[V:2]F =E F E |
[V:3]F C/G/ F C/G/ |
[V:4]=A, B, A, B, |
[V:1]=a >>=e f7// ^c// |
[V:2]F4- |
[V:3]F4 |
[V:4]=A,2 =A,,2 |
[V:1]^c >>=e c/>e/ c3//e// |
[V:2]F4- |
[V:3]F,4- |
[V:4]B,,4- |
[V:1]^c/=d/ =A/B/ ^F/G/ B/G/ |
[V:2]F ^F G =D/B,/ |
[V:3]F, E, =D, D, |
[V:4]B,,4 |
[V:1]F3 =A/G/ |
[V:2]=A,3 C/B,/ |
[V:3]C,3 =E, |
[V:4]C, C, C,, C,, |
[V:1]F/>C/ =D/>=E/ F/>G/ =A3//B// |
[V:2]=A, z3 |
[V:3]F, z3 |
[V:4]F,, z3 |
[V:1]c/>=d/ c/>=B/ c c |
[V:2]z2 z/>=D/ =E3//F// |
[V:3]z/>C/ C,/>=D,/ =E,/>F,/ G,3//=A,// |
[V:4]z4 |
[V:1]c4- |
[V:2]G/>=A/ B/>A/ G/>F/ =E3//=D// |
[V:3]B,/>C/ =D/>C/ B,/>=A,/ G,3//F,// |
[V:4]z4 |
[V:1]c/>=d/ c/>=B/ c c |
[V:2]C z >>=D =E3//F// |
[V:3]=E, z3 |
[V:4]z/>C,/ C,,/>=D,,/ =E,,/>F,,/ G,,3//=A,,// |
[V:1]c4- |
[V:2]G/>^F/ G/>=A/ B =E |
[V:3]z4 |
[V:4]B,,/>=A,,/ B,,/>C,/ =D,/>=E,/ F,3//G,// |
[V:1]c/>=e/ f/>g/ =a/>b/ c'3//=d'// |
[V:2]F4- |
[V:3]C4- |
[V:4]=A,4- |
[V:1]e'2 =d' ^c' |
[V:2]F F F F |
[V:3]C C =D E |
[V:4]A, =A, A, A, |
[V:1]=d'/>=e'/ f'/>e'/ f' g' |
[V:2]F2 z2 |
[V:3]=D2 z2 |
[V:4]B,2 z2 |
[V:1]a'4 |
[V:2]z =d d d |
[V:3]z F F F |
[V:4]z =B, B, B, |
[V:1]=a'4 |
[V:2]z =A A A |
[V:3]z F F F |
[V:4]z C C C |
[V:1]=E4 |
[V:2]z G, G, G, |
[V:3]z B, B, B, |
[V:4]z C,, C,, C,, |
[V:1]F/c/ =A/f/ c/=a/ f/c'/ |
[V:2]=A,2 z2 |
[V:3]=A,2 z2 |
[V:4]F,,2 z2 |
[V:1]c'3 =e |
[V:2]B,/G/ =E/B/ G/=d/ c/B/ |
[V:3]G,/=E/ B,/G/ E/B/ =A/G/ |
[V:4]C,2 z2 |
[V:1]F/c/ =A/f/ c/=a/ f/c'/ |
[V:2]=A z3 |
[V:3]F z3 |
[V:4]F,2 z2 |
[V:1]c'3 =e |
[V:2]B,/G/ =E/B/ G/=d/ c/B/ |
[V:3]G,/=E/ B,/G/ E/B/ =A/G/ |
[V:4]C,2 z2 |
[V:1]f z3 |
[V:2]=A z3 |
[V:3]F z3 |
[V:4]F,, z3 |
[V:1]z4 |]
[V:2]z4 |]
[V:3]z4 |]
[V:4]z4 |]

